images/50282921.svg

<?xml version="1.0" encoding="UTF-8"?>
<svg xmlns="http://www.w3.org/2000/svg" xmlns:xlink="http://www.w3.org/1999/xlink" width="300pt" height="300pt" viewBox="0 0 300 300" version="1.1">
<defs>
<g>
<symbol overflow="visible" id="glyph0-0">
<path style="stroke:none;" d="M 0.453125 1.59375 L 0.453125 -6.34375 L 4.953125 -6.34375 L 4.953125 1.59375 Z M 0.953125 1.09375 L 4.453125 1.09375 L 4.453125 -5.84375 L 0.953125 -5.84375 Z M 0.953125 1.09375 "/>
</symbol>
<symbol overflow="visible" id="glyph0-1">
<path style="stroke:none;" d="M 3.546875 -5.953125 C 2.898438 -5.953125 2.382812 -5.710938 2 -5.234375 C 1.625 -4.753906 1.4375 -4.101562 1.4375 -3.28125 C 1.4375 -2.445312 1.625 -1.789062 2 -1.3125 C 2.382812 -0.832031 2.898438 -0.59375 3.546875 -0.59375 C 4.191406 -0.59375 4.703125 -0.832031 5.078125 -1.3125 C 5.453125 -1.789062 5.640625 -2.445312 5.640625 -3.28125 C 5.640625 -4.101562 5.453125 -4.753906 5.078125 -5.234375 C 4.703125 -5.710938 4.191406 -5.953125 3.546875 -5.953125 Z M 3.546875 -6.6875 C 4.460938 -6.6875 5.195312 -6.375 5.75 -5.75 C 6.300781 -5.132812 6.578125 -4.3125 6.578125 -3.28125 C 6.578125 -2.238281 6.300781 -1.410156 5.75 -0.796875 C 5.195312 -0.179688 4.460938 0.125 3.546875 0.125 C 2.617188 0.125 1.878906 -0.179688 1.328125 -0.796875 C 0.773438 -1.410156 0.5 -2.238281 0.5 -3.28125 C 0.5 -4.3125 0.773438 -5.132812 1.328125 -5.75 C 1.878906 -6.375 2.617188 -6.6875 3.546875 -6.6875 Z M 3.546875 -6.6875 "/>
</symbol>
<symbol overflow="visible" id="glyph0-2">
<path style="stroke:none;" d="M 0.890625 -6.5625 L 2.078125 -6.5625 L 4.984375 -1.078125 L 4.984375 -6.5625 L 5.84375 -6.5625 L 5.84375 0 L 4.65625 0 L 1.75 -5.484375 L 1.75 0 L 0.890625 0 Z M 0.890625 -6.5625 "/>
</symbol>
<symbol overflow="visible" id="glyph0-3">
<path style="stroke:none;" d="M 0.890625 -6.5625 L 1.765625 -6.5625 L 1.765625 -3.875 L 5 -3.875 L 5 -6.5625 L 5.890625 -6.5625 L 5.890625 0 L 5 0 L 5 -3.125 L 1.765625 -3.125 L 1.765625 0 L 0.890625 0 Z M 0.890625 -6.5625 "/>
</symbol>
</g>
</defs>
<g id="surface16589">
<rect x="0" y="0" width="300" height="300" style="fill:rgb(100%,100%,100%);fill-opacity:1;stroke:none;"/>
<path style="fill:none;stroke-width:1.2;stroke-linecap:butt;stroke-linejoin:miter;stroke:rgb(100%,0%,0%);stroke-opacity:1;stroke-miterlimit:10;" d="M 45.410156 138.140625 L 47.101562 126.539062 "/>
<path style="fill:none;stroke-width:1.2;stroke-linecap:butt;stroke-linejoin:miter;stroke:rgb(0%,0%,0%);stroke-opacity:1;stroke-miterlimit:10;" d="M 47.101562 126.539062 L 48.796875 114.9375 "/>
<path style="fill:none;stroke-width:1.2;stroke-linecap:butt;stroke-linejoin:miter;stroke:rgb(100%,0%,0%);stroke-opacity:1;stroke-miterlimit:10;" d="M 45.410156 138.140625 L 54.609375 145.40625 "/>
<path style="fill:none;stroke-width:1.2;stroke-linecap:butt;stroke-linejoin:miter;stroke:rgb(0%,0%,0%);stroke-opacity:1;stroke-miterlimit:10;" d="M 54.609375 145.40625 L 63.808594 152.675781 "/>
<path style=" stroke:none;fill-rule:nonzero;fill:rgb(100%,100%,100%);fill-opacity:1;" d="M 41.410156 132.640625 L 49.410156 132.640625 L 49.410156 143.640625 L 41.410156 143.640625 Z M 41.410156 132.640625 "/>
<g style="fill:rgb(100%,0%,0%);fill-opacity:1;">
  <use xlink:href="#glyph0-1" x="41.410156" y="141.303711"/>
</g>
<path style="fill:none;stroke-width:1.2;stroke-linecap:butt;stroke-linejoin:miter;stroke:rgb(0%,0%,0%);stroke-opacity:1;stroke-miterlimit:10;" d="M 63.808594 152.675781 L 85.597656 144.003906 "/>
<path style="fill:none;stroke-width:1.2;stroke-linecap:butt;stroke-linejoin:miter;stroke:rgb(0%,0%,0%);stroke-opacity:1;stroke-miterlimit:10;" d="M 68.027344 156.933594 L 85.457031 150 "/>
<path style="fill:none;stroke-width:1.2;stroke-linecap:butt;stroke-linejoin:miter;stroke:rgb(0%,0%,0%);stroke-opacity:1;stroke-miterlimit:10;" d="M 60.421875 175.875 L 63.808594 152.675781 "/>
<path style="fill:none;stroke-width:1.2;stroke-linecap:butt;stroke-linejoin:miter;stroke:rgb(0%,0%,0%);stroke-opacity:1;stroke-miterlimit:10;" d="M 85.597656 144.003906 L 103.996094 158.539062 "/>
<path style="fill:none;stroke-width:1.2;stroke-linecap:butt;stroke-linejoin:miter;stroke:rgb(0%,0%,0%);stroke-opacity:1;stroke-miterlimit:10;" d="M 103.996094 158.539062 L 100.613281 181.742188 "/>
<path style="fill:none;stroke-width:1.2;stroke-linecap:butt;stroke-linejoin:miter;stroke:rgb(0%,0%,0%);stroke-opacity:1;stroke-miterlimit:10;" d="M 109.117188 161.65625 L 106.410156 180.21875 "/>
<path style="fill:none;stroke-width:1.2;stroke-linecap:butt;stroke-linejoin:miter;stroke:rgb(0%,0%,0%);stroke-opacity:1;stroke-miterlimit:10;" d="M 125.785156 149.871094 L 103.996094 158.539062 "/>
<path style="fill:none;stroke-width:1.2;stroke-linecap:butt;stroke-linejoin:miter;stroke:rgb(0%,0%,0%);stroke-opacity:1;stroke-miterlimit:10;" d="M 100.613281 181.742188 L 109.8125 189.007812 "/>
<path style="fill:none;stroke-width:1.2;stroke-linecap:butt;stroke-linejoin:miter;stroke:rgb(0%,0%,100%);stroke-opacity:1;stroke-miterlimit:10;" d="M 109.8125 189.007812 L 119.011719 196.277344 "/>
<path style="fill:none;stroke-width:1.2;stroke-linecap:butt;stroke-linejoin:miter;stroke:rgb(0%,0%,0%);stroke-opacity:1;stroke-miterlimit:10;" d="M 100.613281 181.742188 L 78.824219 190.410156 "/>
<path style="fill:none;stroke-width:1.2;stroke-linecap:butt;stroke-linejoin:miter;stroke:rgb(0%,0%,100%);stroke-opacity:1;stroke-miterlimit:10;" d="M 119.011719 196.277344 L 129.90625 191.941406 "/>
<path style="fill:none;stroke-width:1.2;stroke-linecap:butt;stroke-linejoin:miter;stroke:rgb(0%,0%,0%);stroke-opacity:1;stroke-miterlimit:10;" d="M 129.90625 191.941406 L 140.800781 187.605469 "/>
<path style="fill:none;stroke-width:1.2;stroke-linecap:butt;stroke-linejoin:miter;stroke:rgb(0%,0%,100%);stroke-opacity:1;stroke-miterlimit:10;" d="M 119.152344 190.28125 L 127.867188 186.816406 "/>
<path style="fill:none;stroke-width:1.2;stroke-linecap:butt;stroke-linejoin:miter;stroke:rgb(0%,0%,0%);stroke-opacity:1;stroke-miterlimit:10;" d="M 127.867188 186.816406 L 136.582031 183.347656 "/>
<path style=" stroke:none;fill-rule:nonzero;fill:rgb(100%,100%,100%);fill-opacity:1;" d="M 116.011719 190.777344 L 123.011719 190.777344 L 123.011719 201.777344 L 116.011719 201.777344 Z M 116.011719 190.777344 "/>
<g style="fill:rgb(0%,0%,100%);fill-opacity:1;">
  <use xlink:href="#glyph0-2" x="116.011719" y="199.44043"/>
</g>
<path style="fill:none;stroke-width:1.2;stroke-linecap:butt;stroke-linejoin:miter;stroke:rgb(0%,0%,0%);stroke-opacity:1;stroke-miterlimit:10;" d="M 140.800781 187.605469 L 142.492188 176.007812 "/>
<path style="fill:none;stroke-width:1.2;stroke-linecap:butt;stroke-linejoin:miter;stroke:rgb(0%,0%,100%);stroke-opacity:1;stroke-miterlimit:10;" d="M 142.492188 176.007812 L 144.1875 164.40625 "/>
<path style="fill:none;stroke-width:1.2;stroke-linecap:butt;stroke-linejoin:miter;stroke:rgb(0%,0%,100%);stroke-opacity:1;stroke-miterlimit:10;" d="M 144.1875 164.40625 L 134.984375 157.136719 "/>
<path style="fill:none;stroke-width:1.2;stroke-linecap:butt;stroke-linejoin:miter;stroke:rgb(0%,0%,0%);stroke-opacity:1;stroke-miterlimit:10;" d="M 134.984375 157.136719 L 125.785156 149.871094 "/>
<path style="fill:none;stroke-width:1.2;stroke-linecap:butt;stroke-linejoin:miter;stroke:rgb(0%,0%,100%);stroke-opacity:1;stroke-miterlimit:10;" d="M 138.925781 167.28125 L 131.566406 161.46875 "/>
<path style="fill:none;stroke-width:1.2;stroke-linecap:butt;stroke-linejoin:miter;stroke:rgb(0%,0%,0%);stroke-opacity:1;stroke-miterlimit:10;" d="M 131.566406 161.46875 L 124.207031 155.652344 "/>
<path style=" stroke:none;fill-rule:nonzero;fill:rgb(100%,100%,100%);fill-opacity:1;" d="M 141.1875 158.90625 L 148.1875 158.90625 L 148.1875 169.90625 L 141.1875 169.90625 Z M 141.1875 158.90625 "/>
<g style="fill:rgb(0%,0%,100%);fill-opacity:1;">
  <use xlink:href="#glyph0-2" x="141.1875" y="167.569336"/>
</g>
<path style="fill:none;stroke-width:1.2;stroke-linecap:butt;stroke-linejoin:miter;stroke:rgb(0%,0%,0%);stroke-opacity:1;stroke-miterlimit:10;" d="M 125.785156 149.871094 L 127.476562 138.269531 "/>
<path style="fill:none;stroke-width:1.2;stroke-linecap:butt;stroke-linejoin:miter;stroke:rgb(0%,0%,100%);stroke-opacity:1;stroke-miterlimit:10;" d="M 127.476562 138.269531 L 129.171875 126.667969 "/>
<path style="fill:none;stroke-width:1.2;stroke-linecap:butt;stroke-linejoin:miter;stroke:rgb(0%,0%,100%);stroke-opacity:1;stroke-miterlimit:10;" d="M 129.171875 126.667969 L 140.066406 122.332031 "/>
<path style="fill:none;stroke-width:1.2;stroke-linecap:butt;stroke-linejoin:miter;stroke:rgb(0%,0%,0%);stroke-opacity:1;stroke-miterlimit:10;" d="M 140.066406 122.332031 L 150.957031 118 "/>
<path style=" stroke:none;fill-rule:nonzero;fill:rgb(100%,100%,100%);fill-opacity:1;" d="M 122.171875 121.167969 L 136.171875 121.167969 L 136.171875 132.167969 L 122.171875 132.167969 Z M 122.171875 121.167969 "/>
<g style="fill:rgb(0%,0%,100%);fill-opacity:1;">
  <use xlink:href="#glyph0-2" x="122.171875" y="129.831055"/>
  <use xlink:href="#glyph0-3" x="129.149414" y="129.831055"/>
</g>
<path style="fill:none;stroke-width:1.2;stroke-linecap:butt;stroke-linejoin:miter;stroke:rgb(0%,0%,0%);stroke-opacity:1;stroke-miterlimit:10;" d="M 150.957031 118 L 169.359375 132.535156 "/>
<path style="fill:none;stroke-width:1.2;stroke-linecap:butt;stroke-linejoin:miter;stroke:rgb(0%,0%,0%);stroke-opacity:1;stroke-miterlimit:10;" d="M 156.21875 115.125 L 170.9375 126.75 "/>
<path style="fill:none;stroke-width:1.2;stroke-linecap:butt;stroke-linejoin:miter;stroke:rgb(0%,0%,0%);stroke-opacity:1;stroke-miterlimit:10;" d="M 154.34375 94.796875 L 150.957031 118 "/>
<path style="fill:none;stroke-width:1.2;stroke-linecap:butt;stroke-linejoin:miter;stroke:rgb(0%,0%,0%);stroke-opacity:1;stroke-miterlimit:10;" d="M 169.359375 132.535156 L 191.148438 123.863281 "/>
<path style="fill:none;stroke-width:1.2;stroke-linecap:butt;stroke-linejoin:miter;stroke:rgb(0%,0%,0%);stroke-opacity:1;stroke-miterlimit:10;" d="M 191.148438 123.863281 L 200.347656 131.132812 "/>
<path style="fill:none;stroke-width:1.2;stroke-linecap:butt;stroke-linejoin:miter;stroke:rgb(0%,0%,100%);stroke-opacity:1;stroke-miterlimit:10;" d="M 200.347656 131.132812 L 209.546875 138.398438 "/>
<path style="fill:none;stroke-width:1.2;stroke-linecap:butt;stroke-linejoin:miter;stroke:rgb(0%,0%,0%);stroke-opacity:1;stroke-miterlimit:10;" d="M 191.148438 123.863281 L 194.53125 100.664062 "/>
<path style="fill:none;stroke-width:1.2;stroke-linecap:butt;stroke-linejoin:miter;stroke:rgb(0%,0%,0%);stroke-opacity:1;stroke-miterlimit:10;" d="M 186.027344 120.746094 L 188.734375 102.1875 "/>
<path style="fill:none;stroke-width:1.2;stroke-linecap:butt;stroke-linejoin:miter;stroke:rgb(0%,0%,100%);stroke-opacity:1;stroke-miterlimit:10;" d="M 209.546875 138.398438 L 207.855469 150 "/>
<path style="fill:none;stroke-width:1.2;stroke-linecap:butt;stroke-linejoin:miter;stroke:rgb(0%,0%,0%);stroke-opacity:1;stroke-miterlimit:10;" d="M 207.855469 150 L 206.160156 161.601562 "/>
<path style=" stroke:none;fill-rule:nonzero;fill:rgb(100%,100%,100%);fill-opacity:1;" d="M 202.546875 132.898438 L 216.546875 132.898438 L 216.546875 143.898438 L 202.546875 143.898438 Z M 202.546875 132.898438 "/>
<g style="fill:rgb(0%,0%,100%);fill-opacity:1;">
  <use xlink:href="#glyph0-2" x="202.546875" y="141.561523"/>
  <use xlink:href="#glyph0-3" x="209.524414" y="141.561523"/>
</g>
<path style="fill:none;stroke-width:1.2;stroke-linecap:butt;stroke-linejoin:miter;stroke:rgb(0%,0%,0%);stroke-opacity:1;stroke-miterlimit:10;" d="M 205.140625 159.039062 L 194.246094 163.371094 "/>
<path style="fill:none;stroke-width:1.2;stroke-linecap:butt;stroke-linejoin:miter;stroke:rgb(100%,0%,0%);stroke-opacity:1;stroke-miterlimit:10;" d="M 194.246094 163.371094 L 183.355469 167.707031 "/>
<path style="fill:none;stroke-width:1.2;stroke-linecap:butt;stroke-linejoin:miter;stroke:rgb(0%,0%,0%);stroke-opacity:1;stroke-miterlimit:10;" d="M 207.179688 164.164062 L 196.289062 168.5 "/>
<path style="fill:none;stroke-width:1.2;stroke-linecap:butt;stroke-linejoin:miter;stroke:rgb(100%,0%,0%);stroke-opacity:1;stroke-miterlimit:10;" d="M 196.289062 168.5 L 185.394531 172.832031 "/>
<path style="fill:none;stroke-width:1.2;stroke-linecap:butt;stroke-linejoin:miter;stroke:rgb(0%,0%,0%);stroke-opacity:1;stroke-miterlimit:10;" d="M 206.160156 161.601562 L 224.5625 176.136719 "/>
<path style=" stroke:none;fill-rule:nonzero;fill:rgb(100%,100%,100%);fill-opacity:1;" d="M 176.375 164.769531 L 184.375 164.769531 L 184.375 175.769531 L 176.375 175.769531 Z M 176.375 164.769531 "/>
<g style="fill:rgb(100%,0%,0%);fill-opacity:1;">
  <use xlink:href="#glyph0-1" x="176.375" y="173.432617"/>
</g>
<path style="fill:none;stroke-width:1.2;stroke-linecap:butt;stroke-linejoin:miter;stroke:rgb(0%,0%,0%);stroke-opacity:1;stroke-miterlimit:10;" d="M 224.5625 176.136719 L 221.175781 199.335938 "/>
<path style="fill:none;stroke-width:1.2;stroke-linecap:butt;stroke-linejoin:miter;stroke:rgb(0%,0%,0%);stroke-opacity:1;stroke-miterlimit:10;" d="M 229.683594 179.253906 L 226.972656 197.8125 "/>
<path style="fill:none;stroke-width:1.2;stroke-linecap:butt;stroke-linejoin:miter;stroke:rgb(0%,0%,0%);stroke-opacity:1;stroke-miterlimit:10;" d="M 246.347656 167.464844 L 224.5625 176.136719 "/>
<path style="fill:none;stroke-width:1.2;stroke-linecap:butt;stroke-linejoin:miter;stroke:rgb(0%,0%,0%);stroke-opacity:1;stroke-miterlimit:10;" d="M 221.175781 199.335938 L 239.578125 213.871094 "/>
<path style="fill:none;stroke-width:1.2;stroke-linecap:butt;stroke-linejoin:miter;stroke:rgb(0%,0%,0%);stroke-opacity:1;stroke-miterlimit:10;" d="M 239.578125 213.871094 L 261.363281 205.203125 "/>
<path style="fill:none;stroke-width:1.2;stroke-linecap:butt;stroke-linejoin:miter;stroke:rgb(0%,0%,0%);stroke-opacity:1;stroke-miterlimit:10;" d="M 239.714844 207.878906 L 257.144531 200.945312 "/>
<path style="fill:none;stroke-width:1.2;stroke-linecap:butt;stroke-linejoin:miter;stroke:rgb(0%,0%,0%);stroke-opacity:1;stroke-miterlimit:10;" d="M 261.363281 205.203125 L 264.75 182 "/>
<path style="fill:none;stroke-width:1.2;stroke-linecap:butt;stroke-linejoin:miter;stroke:rgb(0%,0%,0%);stroke-opacity:1;stroke-miterlimit:10;" d="M 264.75 182 L 246.347656 167.464844 "/>
<path style="fill:none;stroke-width:1.2;stroke-linecap:butt;stroke-linejoin:miter;stroke:rgb(0%,0%,0%);stroke-opacity:1;stroke-miterlimit:10;" d="M 259.488281 184.875 L 244.769531 173.25 "/>
<path style="fill:none;stroke-width:1.2;stroke-linecap:butt;stroke-linejoin:miter;stroke:rgb(0%,0%,0%);stroke-opacity:1;stroke-miterlimit:10;" d="M 194.53125 100.664062 L 176.132812 86.128906 "/>
<path style="fill:none;stroke-width:1.2;stroke-linecap:butt;stroke-linejoin:miter;stroke:rgb(0%,0%,0%);stroke-opacity:1;stroke-miterlimit:10;" d="M 194.53125 100.664062 L 216.320312 91.992188 "/>
<path style="fill:none;stroke-width:1.2;stroke-linecap:butt;stroke-linejoin:miter;stroke:rgb(0%,0%,0%);stroke-opacity:1;stroke-miterlimit:10;" d="M 176.132812 86.128906 L 154.34375 94.796875 "/>
<path style="fill:none;stroke-width:1.2;stroke-linecap:butt;stroke-linejoin:miter;stroke:rgb(0%,0%,0%);stroke-opacity:1;stroke-miterlimit:10;" d="M 175.992188 92.121094 L 158.5625 99.054688 "/>
<path style="fill:none;stroke-width:1.2;stroke-linecap:butt;stroke-linejoin:miter;stroke:rgb(0%,0%,0%);stroke-opacity:1;stroke-miterlimit:10;" d="M 78.824219 190.410156 L 60.421875 175.875 "/>
<path style="fill:none;stroke-width:1.2;stroke-linecap:butt;stroke-linejoin:miter;stroke:rgb(0%,0%,0%);stroke-opacity:1;stroke-miterlimit:10;" d="M 80.402344 184.628906 L 65.683594 173 "/>
<path style="fill:none;stroke-width:1.2;stroke-linecap:butt;stroke-linejoin:miter;stroke:rgb(0%,0%,0%);stroke-opacity:1;stroke-miterlimit:10;" d="M 60.421875 175.875 L 49.53125 180.210938 "/>
<path style="fill:none;stroke-width:1.2;stroke-linecap:butt;stroke-linejoin:miter;stroke:rgb(100%,0%,0%);stroke-opacity:1;stroke-miterlimit:10;" d="M 49.53125 180.210938 L 38.636719 184.546875 "/>
<path style="fill:none;stroke-width:1.2;stroke-linecap:butt;stroke-linejoin:miter;stroke:rgb(100%,0%,0%);stroke-opacity:1;stroke-miterlimit:10;" d="M 38.636719 184.546875 L 36.941406 196.148438 "/>
<path style="fill:none;stroke-width:1.2;stroke-linecap:butt;stroke-linejoin:miter;stroke:rgb(0%,0%,0%);stroke-opacity:1;stroke-miterlimit:10;" d="M 36.941406 196.148438 L 35.25 207.746094 "/>
<path style=" stroke:none;fill-rule:nonzero;fill:rgb(100%,100%,100%);fill-opacity:1;" d="M 34.636719 179.046875 L 42.636719 179.046875 L 42.636719 190.046875 L 34.636719 190.046875 Z M 34.636719 179.046875 "/>
<g style="fill:rgb(100%,0%,0%);fill-opacity:1;">
  <use xlink:href="#glyph0-1" x="34.636719" y="187.709961"/>
</g>
</g>
</svg>

<svg xmlns="http://www.w3.org/2000/svg" xmlns:xlink="http://www.w3.org/1999/xlink" width="300pt" height="300pt" viewBox="0 0 300 300"><defs><symbol overflow="visible"><path d="M.453 1.594v-7.938h4.5v7.938zm.5-.5h3.5v-6.938h-3.5zm0 0"/></symbol><symbol overflow="visible" id="a"><path d="M3.547-5.953c-.65 0-1.164.242-1.547.72-.375.48-.563 1.13-.563 1.952 0 .835.188 1.49.563 1.967.383.48.898.72 1.547.72.644 0 1.156-.24 1.53-.72.376-.476.564-1.132.564-1.968 0-.822-.187-1.474-.562-1.954-.375-.477-.887-.72-1.53-.72zm0-.734c.914 0 1.648.312 2.203.937.55.617.828 1.438.828 2.47 0 1.042-.277 1.87-.828 2.483-.555.617-1.29.922-2.203.922-.93 0-1.668-.305-2.22-.922C.774-1.41.5-2.237.5-3.28c0-1.033.273-1.853.828-2.47.55-.625 1.29-.938 2.22-.938zm0 0"/></symbol><symbol overflow="visible" id="b"><path d="M.89-6.563H2.08l2.906 5.485v-5.484h.86V0H4.656L1.75-5.484V0H.89zm0 0"/></symbol><symbol overflow="visible" id="c"><path d="M.89-6.563h.876v2.688H5v-2.688h.89V0H5v-3.125H1.766V0H.89zm0 0"/></symbol></defs><g><path fill="#fff" d="M0 0h300v300H0z"/><path d="M45.41 138.14l1.692-11.6" stroke-width="1.2" stroke="#f00" stroke-miterlimit="10" fill="none"/><path d="M47.102 126.54l1.695-11.603" stroke-width="1.2" stroke="#000" stroke-miterlimit="10" fill="none"/><path d="M45.41 138.14l9.2 7.266" stroke-width="1.2" stroke="#f00" stroke-miterlimit="10" fill="none"/><path d="M54.61 145.406l9.2 7.27" stroke-width="1.2" stroke="#000" stroke-miterlimit="10" fill="none"/><path d="M41.41 132.64h8v11h-8zm0 0" fill="#fff"/><use xlink:href="#a" x="41.41" y="141.304" fill="#f00"/><path d="M63.81 152.676l21.788-8.672M68.027 156.934L85.457 150M60.422 175.875l3.387-23.2M85.598 144.004l18.398 14.535M103.996 158.54l-3.383 23.202M109.117 161.656l-2.707 18.563M125.785 149.87l-21.79 8.67M100.613 181.742l9.2 7.266" stroke-width="1.2" stroke="#000" stroke-miterlimit="10" fill="none"/><path d="M109.813 189.008l9.2 7.27" stroke-width="1.2" stroke="#00f" stroke-miterlimit="10" fill="none"/><path d="M100.613 181.742l-21.79 8.668" stroke-width="1.2" stroke="#000" stroke-miterlimit="10" fill="none"/><path d="M119.012 196.277l10.894-4.336" stroke-width="1.2" stroke="#00f" stroke-miterlimit="10" fill="none"/><path d="M129.906 191.94l10.895-4.335" stroke-width="1.2" stroke="#000" stroke-miterlimit="10" fill="none"/><path d="M119.152 190.28l8.715-3.464" stroke-width="1.2" stroke="#00f" stroke-miterlimit="10" fill="none"/><path d="M127.867 186.816l8.715-3.468" stroke-width="1.2" stroke="#000" stroke-miterlimit="10" fill="none"/><path d="M116.012 190.777h7v11h-7zm0 0" fill="#fff"/><use xlink:href="#b" x="116.012" y="199.44" fill="#00f"/><path d="M140.8 187.605l1.692-11.597" stroke-width="1.2" stroke="#000" stroke-miterlimit="10" fill="none"/><path d="M142.492 176.008l1.696-11.602M144.188 164.406l-9.204-7.27" stroke-width="1.2" stroke="#00f" stroke-miterlimit="10" fill="none"/><path d="M134.984 157.137l-9.2-7.266" stroke-width="1.2" stroke="#000" stroke-miterlimit="10" fill="none"/><path d="M138.926 167.28l-7.36-5.81" stroke-width="1.2" stroke="#00f" stroke-miterlimit="10" fill="none"/><path d="M131.566 161.47l-7.36-5.818" stroke-width="1.2" stroke="#000" stroke-miterlimit="10" fill="none"/><path d="M141.188 158.906h7v11h-7zm0 0" fill="#fff"/><use xlink:href="#b" x="141.188" y="167.569" fill="#00f"/><path d="M125.785 149.87l1.692-11.6" stroke-width="1.2" stroke="#000" stroke-miterlimit="10" fill="none"/><path d="M127.477 138.27l1.695-11.602M129.172 126.668l10.894-4.336" stroke-width="1.2" stroke="#00f" stroke-miterlimit="10" fill="none"/><path d="M140.066 122.332l10.89-4.332" stroke-width="1.2" stroke="#000" stroke-miterlimit="10" fill="none"/><path d="M122.172 121.168h14v11h-14zm0 0" fill="#fff"/><g fill="#00f"><use xlink:href="#b" x="122.172" y="129.831"/><use xlink:href="#c" x="129.149" y="129.831"/></g><path d="M150.957 118l18.402 14.535M156.22 115.125l14.718 11.625M154.344 94.797L150.957 118M169.36 132.535l21.788-8.672M191.148 123.863l9.2 7.27" stroke-width="1.2" stroke="#000" stroke-miterlimit="10" fill="none"/><path d="M200.348 131.133l9.2 7.265" stroke-width="1.2" stroke="#00f" stroke-miterlimit="10" fill="none"/><path d="M191.148 123.863l3.383-23.2M186.027 120.746l2.707-18.558" stroke-width="1.2" stroke="#000" stroke-miterlimit="10" fill="none"/><path d="M209.547 138.398L207.855 150" stroke-width="1.2" stroke="#00f" stroke-miterlimit="10" fill="none"/><path d="M207.855 150l-1.695 11.602" stroke-width="1.2" stroke="#000" stroke-miterlimit="10" fill="none"/><path d="M202.547 132.898h14v11h-14zm0 0" fill="#fff"/><g fill="#00f"><use xlink:href="#b" x="202.547" y="141.562"/><use xlink:href="#c" x="209.524" y="141.562"/></g><path d="M205.14 159.04l-10.894 4.33" stroke-width="1.2" stroke="#000" stroke-miterlimit="10" fill="none"/><path d="M194.246 163.37l-10.89 4.337" stroke-width="1.2" stroke="#f00" stroke-miterlimit="10" fill="none"/><path d="M207.18 164.164l-10.89 4.336" stroke-width="1.2" stroke="#000" stroke-miterlimit="10" fill="none"/><path d="M196.29 168.5l-10.895 4.332" stroke-width="1.2" stroke="#f00" stroke-miterlimit="10" fill="none"/><path d="M206.16 161.602l18.403 14.535" stroke-width="1.2" stroke="#000" stroke-miterlimit="10" fill="none"/><path d="M176.375 164.77h8v11h-8zm0 0" fill="#fff"/><use xlink:href="#a" x="176.375" y="173.433" fill="#f00"/><path d="M224.563 176.137l-3.387 23.2M229.684 179.254l-2.71 18.56M246.348 167.465l-21.786 8.672M221.176 199.336l18.402 14.535M239.578 213.87l21.785-8.667M239.715 207.88l17.43-6.935M261.363 205.203L264.75 182M264.75 182l-18.402-14.535M259.488 184.875L244.77 173.25M194.53 100.664L176.134 86.13M194.53 100.664l21.79-8.672M176.133 86.13l-21.79 8.667M175.992 92.12l-17.43 6.935M78.824 190.41l-18.402-14.535M80.402 184.63L65.684 173M60.422 175.875l-10.89 4.336" stroke-width="1.2" stroke="#000" stroke-miterlimit="10" fill="none"/><path d="M49.53 180.21l-10.893 4.337M38.637 184.547l-1.696 11.6" stroke-width="1.2" stroke="#f00" stroke-miterlimit="10" fill="none"/><path d="M36.94 196.148l-1.69 11.598" stroke-width="1.2" stroke="#000" stroke-miterlimit="10" fill="none"/><path d="M34.637 179.047h8v11h-8zm0 0" fill="#fff"/><use xlink:href="#a" x="34.637" y="187.71" fill="#f00"/></g></svg>
